X:520
T:Drimroe Cross
R:jig
S:Martin Norvenius
Z:id:hn-jig-520
M:6/8
L:1/8
K:Dmix
~A3 DED | AGA Adc | AGE cGE | G2E DEG |
~A3 DED | AGA Adc | AGE cGE | DED DE/F/G :|
|: Adc ABc | dce dcA | GEE cEE | GEE DEG |
[1 Adc ABc | dce dcA | GEE cGE | DED DE/F/G :|
[2 ~A3 DED | AGA Adc | AGE cGE | DED DE/F/G ||

